X:124
T: A szegedi halastó...
M: 2/4
L: 1/4
K: Bb
gf | gf | g/dd/ | 
gf/e/ | d/B/c | d/BB/ | 
Bc | dc | d/BG/ | 
BA/G/ | B/B/A | B/GG/ | 

